X:1
T:Les Retrouvailles
T:Les Retrouvailles
T:abc file by Bernard Loffet
C:abc file by Bernard Loffet
L:1/8
Q:1/8=440
M:4/4
K:C
V:1 treble 
V:1
 z2 C2 C2 D2 | [C,E]2 C,2 C,2 C,2 | C,2 [C,E]2 [C,D]2 [C,E]2 | [C,C]2 C,2 C,2 C,2 | %4
 C,2 [C,G]2 [C,G]2 [C,G]2 | [F,A]2 F,2 F,2 F,2 | F,2 [F,A]2 [F,A]2 [F,F]2 | [C,G]2 C,2 C,2 C,2 | %8
 C,2 [C,G]2 [C,G]2 [C,G]2 | [F,A]2 F,2 F,2 F,2 | F,2 [F,A]2 [F,A]2 [F,F]2 | [C,G]2 C,2 C,2 C,2 | %12
 C,2 [C,C]2 [C,C]2 [C,D]2 | [A,E]2 A,2 [A,E]2 [A,E]2 | [G,F]2 [G,D]2 [G,C]2 [G,B,]2 | %15
 [C,C]2 C,2 C,2 C,2 | C,2 [C,G]2 [C,G]2 [C,G]2 | [F,A]2 F,2 F,2 F,2 | F,2 [F,A]2 [F,G]2 [F,A]2 | %19
 [G,B]2 G,2 G,2 G,2 | G,2 [G,B]2 [G,A]2 [G,B]2 | [F,c]2 F,2 [F,c]2 F,2 | [G,B]2 G,2 [G,A]2 G,2 | %23
 [C,G]2 C,2 C,2 C,2 | C,2 [C,G]2 [C,G]2 [C,G]2 | [F,F]2 F,2 F,2 F,2 | G,2 [G,A]2 [G,G]2 [G,F]2 | %27
 [C,E]2 C,2 C,2 C,2 | A,2 [A,C]2 [A,C]2 [A,D]2 | [C,E]2 C,2 [C,E]2 [C,E]2 | %30
 [G,F]2 [G,D]2 [G,C]2 [G,B,]2 | [C,C]2 C,2 C,2 C,2 | C,8 | %33

